Newaita-dark/apps/24/doublecmd.svg

<?xml version="1.0" encoding="UTF-8"?>
<svg xmlns="http://www.w3.org/2000/svg" xmlns:xlink="http://www.w3.org/1999/xlink" width="24pt" height="24pt" viewBox="0 0 24 24" version="1.1">
<defs>
<linearGradient id="linear0" gradientUnits="userSpaceOnUse" x1="254" y1="233.5" x2="254" y2="254.666672" gradientTransform="matrix(0.0468795,0,0,0.0468795,-0.0000028613,10.079089)">
<stop offset="0" style="stop-color:rgb(0%,0%,0%);stop-opacity:0.27451;"/>
<stop offset="1" style="stop-color:rgb(0%,0%,0%);stop-opacity:0;"/>
</linearGradient>
<radialGradient id="radial0" gradientUnits="userSpaceOnUse" cx="450.908936" cy="189.579361" fx="450.908936" fy="189.579361" r="21.166656" gradientTransform="matrix(0.000000130628,-0.0585994,-0.105479,-0.0000000761539,39.097986,47.696499)">
<stop offset="0" style="stop-color:rgb(0%,0%,0%);stop-opacity:0.313725;"/>
<stop offset="0.222222" style="stop-color:rgb(0%,0%,0%);stop-opacity:0.27451;"/>
<stop offset="1" style="stop-color:rgb(0%,0%,0%);stop-opacity:0;"/>
</radialGradient>
<radialGradient id="radial1" gradientUnits="userSpaceOnUse" cx="450.908936" cy="189.579361" fx="450.908936" fy="189.579361" r="21.166656" gradientTransform="matrix(-0.000000130628,0.0585994,0.105479,0.0000000761539,-15.28321,-5.645609)">
<stop offset="0" style="stop-color:rgb(0%,0%,0%);stop-opacity:0.313725;"/>
<stop offset="0.222222" style="stop-color:rgb(0%,0%,0%);stop-opacity:0.27451;"/>
<stop offset="1" style="stop-color:rgb(0%,0%,0%);stop-opacity:0;"/>
</radialGradient>
<radialGradient id="radial2" gradientUnits="userSpaceOnUse" cx="450.908936" cy="189.579361" fx="450.908936" fy="189.579361" r="21.166656" gradientTransform="matrix(-0.000000130628,-0.0585994,0.105479,-0.0000000761539,-15.28321,47.696499)">
<stop offset="0" style="stop-color:rgb(0%,0%,0%);stop-opacity:0.313725;"/>
<stop offset="0.222222" style="stop-color:rgb(0%,0%,0%);stop-opacity:0.27451;"/>
<stop offset="1" style="stop-color:rgb(0%,0%,0%);stop-opacity:0;"/>
</radialGradient>
<radialGradient id="radial3" gradientUnits="userSpaceOnUse" cx="450.908936" cy="189.579361" fx="450.908936" fy="189.579361" r="21.166656" gradientTransform="matrix(0.000000130628,0.0585994,-0.105479,0.0000000761539,39.097985,-5.64561)">
<stop offset="0" style="stop-color:rgb(0%,0%,0%);stop-opacity:0.313725;"/>
<stop offset="0.222222" style="stop-color:rgb(0%,0%,0%);stop-opacity:0.27451;"/>
<stop offset="1" style="stop-color:rgb(0%,0%,0%);stop-opacity:0;"/>
</radialGradient>
<linearGradient id="linear1" gradientUnits="userSpaceOnUse" x1="254" y1="233.5" x2="254" y2="-168.666672" gradientTransform="matrix(0.0468795,0,0,0.0468795,0,10.079087)">
<stop offset="0" style="stop-color:rgb(95.686275%,26.27451%,21.176471%);stop-opacity:1;"/>
<stop offset="1" style="stop-color:rgb(93.72549%,32.54902%,31.372549%);stop-opacity:1;"/>
</linearGradient>
<linearGradient id="linear2" gradientUnits="userSpaceOnUse" x1="520" y1="1535.118164" x2="520" y2="335.118103" gradientTransform="matrix(1,0,0,1,0,0)">
<stop offset="0" style="stop-color:rgb(93.333333%,93.333333%,93.333333%);stop-opacity:1;"/>
<stop offset="1" style="stop-color:rgb(87.843137%,87.843137%,87.843137%);stop-opacity:1;"/>
</linearGradient>
<linearGradient id="linear3" gradientUnits="userSpaceOnUse" x1="520" y1="1535.118164" x2="520" y2="335.118103" gradientTransform="matrix(-0.264583,0,0,0.264583,508,-215)">
<stop offset="0" style="stop-color:rgb(93.333333%,93.333333%,93.333333%);stop-opacity:1;"/>
<stop offset="1" style="stop-color:rgb(87.843137%,87.843137%,87.843137%);stop-opacity:1;"/>
</linearGradient>
</defs>
<g id="surface1">
<path style=" stroke:none;fill-rule:nonzero;fill:url(#linear0);" d="M 4.464844 21.027344 L 19.347656 21.027344 L 19.347656 22.019531 L 4.464844 22.019531 Z M 4.464844 21.027344 "/>
<path style=" stroke:none;fill-rule:nonzero;fill:url(#radial0);" d="M 19.347656 21.027344 L 21.335938 21.027344 L 21.335938 20.03125 L 19.347656 20.03125 Z M 19.347656 21.027344 "/>
<path style=" stroke:none;fill-rule:nonzero;fill:url(#radial1);" d="M 4.464844 21.027344 L 2.480469 21.027344 L 2.480469 22.019531 L 4.464844 22.019531 Z M 4.464844 21.027344 "/>
<path style=" stroke:none;fill-rule:nonzero;fill:url(#radial2);" d="M 4.464844 21.027344 L 2.480469 21.027344 L 2.480469 20.03125 L 4.464844 20.03125 Z M 4.464844 21.027344 "/>
<path style=" stroke:none;fill-rule:nonzero;fill:url(#radial3);" d="M 19.347656 21.027344 L 21.335938 21.027344 L 21.335938 22.019531 L 19.347656 22.019531 Z M 19.347656 21.027344 "/>
<path style=" stroke:none;fill-rule:nonzero;fill:url(#linear1);" d="M 4.464844 2.171875 L 19.347656 2.171875 C 20.445312 2.171875 21.335938 3.0625 21.335938 4.15625 L 21.335938 19.039062 C 21.335938 20.136719 20.445312 21.027344 19.347656 21.027344 L 4.464844 21.027344 C 3.371094 21.027344 2.480469 20.136719 2.480469 19.039062 L 2.480469 4.15625 C 2.480469 3.0625 3.371094 2.171875 4.464844 2.171875 Z M 4.464844 2.171875 "/>
<path style=" stroke:none;fill-rule:nonzero;fill:rgb(100%,100%,100%);fill-opacity:0.392157;" d="M 4.464844 2.171875 C 3.367188 2.171875 2.480469 3.058594 2.480469 4.15625 L 2.480469 4.40625 C 2.480469 3.304688 3.367188 2.421875 4.464844 2.421875 L 19.347656 2.421875 C 20.449219 2.421875 21.335938 3.304688 21.335938 4.40625 L 21.335938 4.15625 C 21.335938 3.058594 20.449219 2.171875 19.347656 2.171875 Z M 4.464844 2.171875 "/>
<path style=" stroke:none;fill-rule:nonzero;fill:rgb(0%,0%,0%);fill-opacity:0.235294;" d="M 4.464844 21.027344 C 3.367188 21.027344 2.480469 20.140625 2.480469 19.039062 L 2.480469 18.792969 C 2.480469 19.890625 3.367188 20.777344 4.464844 20.777344 L 19.347656 20.777344 C 20.449219 20.777344 21.335938 19.890625 21.335938 18.792969 L 21.335938 19.039062 C 21.335938 20.140625 20.449219 21.027344 19.347656 21.027344 Z M 4.464844 21.027344 "/>
<path style=" stroke:none;fill-rule:nonzero;fill:rgb(12.941177%,12.941177%,12.941177%);fill-opacity:1;" d="M 4.464844 2.101562 C 3.328125 2.101562 2.410156 3.019531 2.410156 4.15625 L 2.410156 19.039062 C 2.410156 20.179688 3.328125 21.097656 4.464844 21.097656 L 19.347656 21.097656 C 20.488281 21.097656 21.40625 20.179688 21.40625 19.039062 L 21.40625 4.15625 C 21.40625 3.019531 20.488281 2.101562 19.347656 2.101562 Z M 4.464844 2.242188 L 19.347656 2.242188 C 20.410156 2.242188 21.265625 3.09375 21.265625 4.15625 L 21.265625 19.039062 C 21.265625 20.101562 20.410156 20.957031 19.347656 20.957031 L 4.464844 20.957031 C 3.402344 20.957031 2.550781 20.101562 2.550781 19.039062 L 2.550781 4.15625 C 2.550781 3.09375 3.402344 2.242188 4.464844 2.242188 Z M 4.464844 2.242188 "/>
<path style="fill-rule:nonzero;fill:url(#linear2);stroke-width:11.338583;stroke-linecap:round;stroke-linejoin:miter;stroke:rgb(12.941177%,12.941177%,12.941177%);stroke-opacity:1;stroke-miterlimit:4;" d="M 199.980913 335.086129 C 155.575703 335.086129 119.988548 370.673283 119.988548 415.078494 L 119.988548 535.067042 C 119.988548 579.472253 155.575703 615.059407 199.980913 615.059407 C 421.692036 615.059407 599.94274 757.722956 599.94274 935.028869 C 599.94274 1112.334781 421.692036 1254.99833 199.980913 1254.99833 C 155.575703 1254.99833 119.988548 1290.900415 119.988548 1334.990695 L 119.988548 1454.979243 C 119.988548 1499.384454 155.575703 1534.971608 199.980913 1534.971608 C 576.637878 1534.971608 879.916018 1269.485136 879.916018 939.122966 L 879.916018 930.934771 C 879.916018 600.887532 576.637878 335.086129 199.980913 335.086129 Z M 199.980913 335.086129 " transform="matrix(0.0124035,0,0,0.0124035,0,0)"/>
<path style="fill-rule:nonzero;fill:url(#linear3);stroke-width:3;stroke-linecap:round;stroke-linejoin:miter;stroke:rgb(12.941177%,12.941177%,12.941177%);stroke-opacity:1;stroke-miterlimit:4;" d="M 455.123205 -126.3418 C 466.788757 -126.3418 476.28785 -116.926032 476.28785 -105.177154 L 476.28785 -73.430186 C 476.28785 -61.681308 466.788757 -52.26554 455.123205 -52.26554 C 396.46214 -52.26554 349.216651 -14.519145 349.216651 32.393042 C 349.216651 79.305229 396.46214 117.051624 455.123205 117.051624 C 466.788757 117.051624 476.28785 126.550717 476.28785 138.21627 L 476.28785 169.963238 C 476.28785 181.712116 466.788757 191.127883 455.123205 191.127883 C 355.382729 191.127883 275.140392 120.884591 275.140392 33.476272 L 275.140392 31.309812 C 275.140392 -56.015182 355.382729 -126.3418 455.123205 -126.3418 Z M 455.123205 -126.3418 " transform="matrix(0.0468795,0,0,0.0468795,0,10.079087)"/>
</g>
</svg>

<svg xmlns="http://www.w3.org/2000/svg" width="32" height="32" viewBox="0 0 24 24"><defs><linearGradient id="a" gradientUnits="userSpaceOnUse" x1="254" y1="233.5" x2="254" y2="254.667" gradientTransform="matrix(.04688 0 0 .04688 0 10.08)"><stop offset="0" stop-opacity=".275"/><stop offset="1" stop-opacity="0"/></linearGradient><radialGradient id="b" gradientUnits="userSpaceOnUse" cx="450.909" cy="189.579" fx="450.909" fy="189.579" r="21.167" gradientTransform="matrix(0 -.0586 -.10548 0 39.098 47.696)"><stop offset="0" stop-opacity=".314"/><stop offset=".222" stop-opacity=".275"/><stop offset="1" stop-opacity="0"/></radialGradient><radialGradient id="c" gradientUnits="userSpaceOnUse" cx="450.909" cy="189.579" fx="450.909" fy="189.579" r="21.167" gradientTransform="matrix(0 .0586 .10548 0 -15.283 -5.646)"><stop offset="0" stop-opacity=".314"/><stop offset=".222" stop-opacity=".275"/><stop offset="1" stop-opacity="0"/></radialGradient><radialGradient id="d" gradientUnits="userSpaceOnUse" cx="450.909" cy="189.579" fx="450.909" fy="189.579" r="21.167" gradientTransform="matrix(0 -.0586 .10548 0 -15.283 47.696)"><stop offset="0" stop-opacity=".314"/><stop offset=".222" stop-opacity=".275"/><stop offset="1" stop-opacity="0"/></radialGradient><radialGradient id="e" gradientUnits="userSpaceOnUse" cx="450.909" cy="189.579" fx="450.909" fy="189.579" r="21.167" gradientTransform="matrix(0 .0586 -.10548 0 39.098 -5.646)"><stop offset="0" stop-opacity=".314"/><stop offset=".222" stop-opacity=".275"/><stop offset="1" stop-opacity="0"/></radialGradient><linearGradient id="f" gradientUnits="userSpaceOnUse" x1="254" y1="233.5" x2="254" y2="-168.667" gradientTransform="matrix(.04688 0 0 .04688 0 10.08)"><stop offset="0" stop-color="#f44336"/><stop offset="1" stop-color="#ef5350"/></linearGradient><linearGradient id="g" gradientUnits="userSpaceOnUse" x1="520" y1="1535.118" x2="520" y2="335.118"><stop offset="0" stop-color="#eee"/><stop offset="1" stop-color="#e0e0e0"/></linearGradient><linearGradient id="h" gradientUnits="userSpaceOnUse" x1="520" y1="1535.118" x2="520" y2="335.118" gradientTransform="matrix(-.26458 0 0 .26458 508 -215)"><stop offset="0" stop-color="#eee"/><stop offset="1" stop-color="#e0e0e0"/></linearGradient></defs><path d="M4.465 21.027h14.883v.993H4.465zm0 0" fill="url(#a)"/><path d="M19.348 21.027h1.988v-.996h-1.988zm0 0" fill="url(#b)"/><path d="M4.465 21.027H2.48v.993h1.985zm0 0" fill="url(#c)"/><path d="M4.465 21.027H2.48v-.996h1.985zm0 0" fill="url(#d)"/><path d="M19.348 21.027h1.988v.993h-1.988zm0 0" fill="url(#e)"/><path d="M4.465 2.172h14.883c1.097 0 1.988.89 1.988 1.984V19.04c0 1.098-.89 1.988-1.988 1.988H4.465A1.988 1.988 0 0 1 2.48 19.04V4.156c0-1.093.891-1.984 1.985-1.984zm0 0" fill="url(#f)"/><path d="M4.465 2.172A1.982 1.982 0 0 0 2.48 4.156v.25a1.98 1.98 0 0 1 1.985-1.984h14.883a1.98 1.98 0 0 1 1.988 1.984v-.25a1.983 1.983 0 0 0-1.988-1.984zm0 0" fill="#fff" fill-opacity=".392"/><path d="M4.465 21.027A1.983 1.983 0 0 1 2.48 19.04v-.246c0 1.098.887 1.984 1.985 1.984h14.883a1.983 1.983 0 0 0 1.988-1.984v.246a1.984 1.984 0 0 1-1.988 1.988zm0 0" fill-opacity=".235"/><path d="M4.465 2.102A2.052 2.052 0 0 0 2.41 4.156V19.04c0 1.14.918 2.059 2.055 2.059h14.883c1.14 0 2.058-.918 2.058-2.059V4.156a2.053 2.053 0 0 0-2.058-2.054zm0 .14h14.883a1.91 1.91 0 0 1 1.918 1.914V19.04a1.914 1.914 0 0 1-1.918 1.918H4.465a1.91 1.91 0 0 1-1.914-1.918V4.156c0-1.062.851-1.914 1.914-1.914zm0 0" fill="#212121"/><path d="M199.98 335.086c-44.404 0-79.991 35.587-79.991 79.992v119.989c0 44.405 35.587 79.992 79.992 79.992 221.711 0 399.962 142.664 399.962 319.97 0 177.306-178.251 319.97-399.962 319.97-44.405 0-79.992 35.901-79.992 79.992v119.988c0 44.405 35.587 79.993 79.992 79.993 376.657 0 679.935-265.487 679.935-595.849v-8.188c0-330.047-303.278-595.849-679.935-595.849zm0 0" transform="scale(.0124)" fill="url(#g)" stroke-width="11.339" stroke-linecap="round" stroke="#212121"/><path d="M455.123-126.342c11.666 0 21.165 9.416 21.165 21.165v31.747c0 11.749-9.5 21.164-21.165 21.164-58.66 0-105.906 37.747-105.906 84.659 0 46.912 47.245 84.659 105.906 84.659 11.666 0 21.165 9.499 21.165 21.164v31.747c0 11.75-9.5 21.165-21.165 21.165-99.74 0-179.983-70.243-179.983-157.652V31.31c0-87.325 80.243-157.652 179.983-157.652zm0 0" transform="matrix(.04688 0 0 .04688 0 10.08)" fill="url(#h)" stroke-width="3" stroke-linecap="round" stroke="#212121"/></svg>
